X: 28728
T: My Former Wife
R: jig
M: 6/8
K: Adorian
|:EAA ABc|BAB c2A|BGE EDE|GED DB,D|
EAA ABc|BAB GBd|ede gdB|1 BAG A2G:|2 BAG A2g||
|:efg ~a3|bag a2g|ede ~g3|gba ged|
efg ~a3|bag a2g|ede gdB|1 BAG A2g:|2 BAG A2G||

